X: 12086
T: Ethnica
R: mazurka
M: 3/4
K: Aminor
c>d|c7/B/ A2|A4 c>d|c7/B/ F2|E4 c>d|e7/d/ c2|d4 f2|(e6|e4) c>d|
e7/d/ c2|d4 c>d|e4 c2|A4 c>d|e7/d/ c2|d4 c>d|e4 c'2|a7/g/ f2|
e7/g/ f>e|d7/f/ e>d|e4 g2|f6|e7/d/ c2|B7/c/ B>G|(A6|A4)||

